X:532
T:B532-  Would You Know How We Meet
S:H. Purcell, 1685
Q:1/4=120
L:1/4
M:3/4
K:D
d/c/|d(e/f/) (e/d/)|c3/2c/ (d3/4c/4)|(B3/4c/4) (d/B/)g|\
e3/2e/A|(d/c/) (B/A/) (G/F/)|EEF|(G/A/) (B/G/)A|\
D2c/e/|f(e/d/ c/4d/4)B/|^A2(f3/4e/4)|(d/c/)Be|\
c2c|def|g(f/e/)a|f3/2g/e|d2":s:"A|\
dDE|(F/G/ F/)E/D|(G/A/ G/)F/E|A2(a/g/)|\
(f/e/) (d/c/) (B/d/)|c3/2c/d|d3/2e/c|.d2|]
